**kern
*clefG2
*k[]
*M4/4
=
4.aa
8ee~
4.ff
8ee~
=
4.ddT
8cc
(8.b
16cc)
(8.dd
16ee)
=
4cc
(16dd
16cc
16b
16cc)
4.cct
(16b
16cc#)
=
4.dd
8ee
4.eet
(16dd
16ee)
=
2ff
4.b
8dd
=
4.g#
16a~
16g#~
8a
16b~
16a~
8b
16cc~
16b~
=
8cc
16a~
16g#~
8a
16cc~
16b~
8cc
16dd~
16cc~
8dd
16ee~
16dd~
=
2ee
4.aa
8a~
=
4dd
8.cc
16b
4.bt
8a
=
1a;
==|!
*-
